z-union/img/icons/arrow-right-gold.svg

<svg width="31" height="9" viewBox="0 0 31 9" fill="none" xmlns="http://www.w3.org/2000/svg">
<path d="M30.6559 4.83321C30.852 4.6388 30.8534 4.32222 30.659 4.12611L27.4909 0.93032C27.2965 0.73421 26.9799 0.732833 26.7838 0.927245C26.5877 1.12166 26.5863 1.43824 26.7807 1.63434L29.5968 4.47505L26.7561 7.29115C26.56 7.48556 26.5586 7.80214 26.753 7.99825C26.9475 8.19435 27.264 8.19573 27.4601 8.00132L30.6559 4.83321ZM0.302025 4.84765L30.3017 4.97812L30.3061 3.97812L0.306374 3.84766L0.302025 4.84765Z" fill="#D68F44"/>
</svg>

<svg width="31" height="9" fill="none" xmlns="http://www.w3.org/2000/svg"><path d="M30.656 4.833a.5.5 0 00.003-.707L27.491.93a.5.5 0 00-.71.704l2.816 2.841-2.84 2.816a.5.5 0 00.703.71l3.196-3.168zM.302 4.848l30 .13.004-1-30-.13-.004 1z" fill="#D68F44"/></svg>
